icon/gr/launch.svg

<svg xmlns="http://www.w3.org/2000/svg" width="24" height="24"><path fill="none" stroke="#000" stroke-width="2" d="M7 9v5s-3 2-3 5v1h4l2 3h4l2-3h4v-1c0-3-3-5-3-5V9c0-4-3-8-5-8S7 5 7 9Zm1 11h8M12 9a1 1 0 1 0 0-2 1 1 0 0 0 0 2Z"/></svg>

<svg xmlns="http://www.w3.org/2000/svg" viewBox="0 0 24 24" height="1em" width="1em">
  <path fill="none" stroke="#000" stroke-width="2" d="M7,9 L7,14 C7,14 4,16 4,19 L4,20 L8,20 L10,23 L14,23 L16,20 L20,20 L20,19 C20,16 17,14 17,14 L17,9 C17,5 14,1 12,1 C10,1 7,5 7,9 Z M8,20 L16,20 M12,9 C12.5522847,9 13,8.55228475 13,8 C13,7.44771525 12.5522847,7 12,7 C11.4477153,7 11,7.44771525 11,8 C11,8.55228475 11.4477153,9 12,9 Z"/>
</svg>
